src/icons/haxe.svg

<svg xmlns="http://www.w3.org/2000/svg" width="16" height="16" fill="none"><path fill="#FFCB6B" d="M4.25 4.25h7.5v7.5h-7.5z"/><path fill="#F78C6C" d="m3 3 .313 2.5L4.25 8 8 4.25l-2.5-.937zM3 13l2.5-.312L8 11.75 4.25 8l-.937 2.5zM13 13l-.312-2.5L11.75 8 8 11.75l2.5.938zM13 3l-2.5.313L8 4.25 11.75 8l.938-2.5z"/><path fill="#FFCB08" d="m3 3 5 1.25L5.5 3z"/><path fill="#FFF200" d="M3 3v2.5L4.25 8zM3 13l1.25-5L3 10.5z"/><path fill="#F78C6C" d="M3 13h2.5L8 11.75z"/><path fill="#F7941E" d="m13 13-5-1.25L10.5 13z"/><path fill="#F15922" d="M13 13v-2.5L11.75 8zM13 3l-1.25 5L13 5.5z"/><path fill="#FFCB08" d="M13 3h-2.5L8 4.25z"/></svg>

<svg width="16" height="16" viewBox="0 0 16 16" fill="none" xmlns="http://www.w3.org/2000/svg">
<path d="M4.25 4.25H11.75V11.75H4.25V4.25Z" fill="#FFCB6B"/>
<path d="M3 3L3.313 5.5L4.25 8L8 4.25L5.5 3.313L3 3ZM3 13L5.5 12.688L8 11.75L4.25 8L3.313 10.5L3 13ZM13 13L12.688 10.5L11.75 8L8 11.75L10.5 12.688L13 13ZM13 3L10.5 3.313L8 4.25L11.75 8L12.688 5.5L13 3Z" fill="#F78C6C"/>
<path d="M3 3L8 4.25L5.5 3H3Z" fill="#FFCB08"/>
<path d="M3 3V5.5L4.25 8L3 3ZM3 13L4.25 8L3 10.5V13Z" fill="#FFF200"/>
<path d="M3 13H5.5L8 11.75L3 13Z" fill="#F78C6C"/>
<path d="M13 13L8 11.75L10.5 13H13Z" fill="#F7941E"/>
<path d="M13 13V10.5L11.75 8L13 13ZM13 3L11.75 8L13 5.5V3Z" fill="#F15922"/>
<path d="M13 3H10.5L8 4.25L13 3Z" fill="#FFCB08"/>
</svg>
